Yaru++/apps/scalable/org.gnome.Sysprof.svg

<?xml version="1.0" encoding="UTF-8" standalone="no"?>
<svg
   xmlns:dc="http://purl.org/dc/elements/1.1/"
   xmlns:cc="http://creativecommons.org/ns#"
   xmlns:rdf="http://www.w3.org/1999/02/22-rdf-syntax-ns#"
   xmlns:svg="http://www.w3.org/2000/svg"
   xmlns="http://www.w3.org/2000/svg"
   xmlns:xlink="http://www.w3.org/1999/xlink"
   xmlns:sodipodi="http://sodipodi.sourceforge.net/DTD/sodipodi-0.dtd"
   xmlns:inkscape="http://www.inkscape.org/namespaces/inkscape"
   style="enable-background:new"
   width="256"
   height="256"
   version="1.0"
   viewBox="0 0 256 256"
   id="svg65"
   sodipodi:docname="com.github.naaando.rush.svg"
   inkscape:version="0.92.4 (5da689c313, 2019-01-14)">
  <metadata
     id="metadata69">
    <rdf:RDF>
      <cc:Work
         rdf:about="">
        <dc:format>image/svg+xml</dc:format>
        <dc:type
           rdf:resource="http://purl.org/dc/dcmitype/StillImage" />
        <dc:title>
  Adwaita Icon Template
 </dc:title>
      </cc:Work>
    </rdf:RDF>
  </metadata>
  <sodipodi:namedview
     pagecolor="#ffffff"
     bordercolor="#666666"
     borderopacity="1"
     objecttolerance="10"
     gridtolerance="10"
     guidetolerance="10"
     inkscape:pageopacity="0"
     inkscape:pageshadow="2"
     inkscape:window-width="1920"
     inkscape:window-height="1016"
     id="namedview67"
     showgrid="false"
     inkscape:zoom="3.2773438"
     inkscape:cx="70.026223"
     inkscape:cy="128"
     inkscape:window-x="0"
     inkscape:window-y="27"
     inkscape:window-maximized="1"
     inkscape:current-layer="svg65" />
  <title
     id="title4162">
  Adwaita Icon Template
 </title>
  <defs
     id="defs39">
    <linearGradient
       id="linearGradient950">
      <stop
         style="stop-color:#9a9996"
         id="stop946"
         offset="0" />
      <stop
         style="stop-color:#77767b"
         id="stop948"
         offset="1" />
    </linearGradient>
    <linearGradient
       id="linearGradient1001"
       x1="1660.857"
       x2="1662.99"
       y1="806.297"
       y2="812.882"
       gradientTransform="matrix(1.8293937,-0.81599442,0.81599442,1.8293937,-3645.9624,100.02949)"
       gradientUnits="userSpaceOnUse"
       xlink:href="#linearGradient950" />
    <clipPath
       id="clipPath5154"
       clipPathUnits="userSpaceOnUse">
      <circle
         style="fill:url(#radialGradient5158)"
         cx="128"
         cy="924.362"
         r="109.647"
         id="circle7" />
    </clipPath>
    <clipPath
       id="clipPath977"
       clipPathUnits="userSpaceOnUse">
      <circle
         style="fill:url(#radialGradient5158)"
         cx="128"
         cy="924.362"
         r="109.647"
         id="circle10" />
    </clipPath>
    <clipPath
       id="clipPath4688"
       clipPathUnits="userSpaceOnUse">
      <path
         style="fill:url(#radialGradient4692);stroke:#a7003f;stroke-linecap:round;stroke-linejoin:round"
         d="m 106.42383,889.60156 c -2.2448,-0.0524 -4.09304,1.75264 -4.09375,3.99805 v 32.64453 32.64453 c -4e-5,3.07923 3.33305,5.004 6,3.46485 l 28.26953,-16.32227 28.27148,-16.32227 c 2.66559,-1.54001 2.66559,-5.38772 0,-6.92773 l -28.27148,-16.32227 -28.26953,-16.32226 c -0.58054,-0.3353 -1.23603,-0.51932 -1.90625,-0.53516 z"
         id="path13" />
    </clipPath>
    <clipPath
       id="clipPath4564"
       clipPathUnits="userSpaceOnUse">
      <circle
         style="fill:url(#radialGradient4568)"
         cx="128"
         cy="924.362"
         r="109.647"
         id="circle16" />
    </clipPath>
    <clipPath
       id="clipPath6215"
       clipPathUnits="userSpaceOnUse">
      <path
         style="fill:url(#radialGradient6219)"
         d="m 105.17325,806.18572 c -3.06859,0.56361 -6.11393,1.24721 -9.129005,2.04923 -3.838255,1.06506 -7.62084,2.32142 -11.333578,3.76438 -3.712189,1.44307 -7.34989,3.07087 -10.899472,4.87732 -3.549153,1.80656 -7.005749,3.78947 -10.35684,5.94129 -3.351877,2.15253 -6.593991,4.47137 -9.714191,6.94783 -3.119992,2.47544 -6.114241,5.10535 -8.971529,7.87988 -0.367219,0.38909 -0.731819,0.78065 -1.093777,1.17464 2.60205,17.85956 16.832359,40.03752 30.863064,55.74236 -4.76734,8.84435 -7.265993,18.73329 -7.272057,28.78068 0.02104,2.87431 0.246096,5.7435 0.673482,8.58593 -20.257302,-9.18513 -43.077023,-26.53494 -52.798465,-47.36396 -0.440667,1.15171 -0.863474,2.31018 -1.268271,3.47498 -1.176789,3.80495 -2.162562,7.66637 -2.953625,11.56979 -0.79154,3.90311 -1.3874065,7.84335 -1.7853678,11.80598 -0.39733,3.96334 -0.5961891,7.94407 -0.5958321,11.92728 -4.394e-4,2.81936 0.098928,5.63785 0.2979155,8.45018 0.282275,3.97319 0.763088,7.92978 1.4406374,11.85493 0.625626,3.51826 1.408798,7.00668 2.347153,10.45473 16.778133,6.68355 43.114514,5.45001 63.748015,1.14301 6.818545,11.02763 16.987182,19.58379 29.018153,24.41667 -18.071844,12.93645 -44.490188,24.02095 -67.37308,22.03245 1.384097,1.665 2.813203,3.2921 4.285735,4.8794 2.774977,2.8571 5.691103,5.5737 8.737453,8.1395 3.046107,2.5658 6.218619,4.9777 9.505651,7.2266 3.287242,2.2488 6.684891,4.3319 10.180217,6.2413 3.495379,1.9096 7.084075,3.6433 10.752641,5.1944 3.66896,1.5509 7.413193,2.9174 11.218668,4.0942 1.438565,0.3959 2.884421,0.7648 4.336807,1.1066 14.138748,-11.1844 26.206378,-34.5828 32.780368,-54.56406 12.95816,-0.38251 25.45395,-4.90132 35.65955,-12.89544 2.15922,22.12638 -1.46693,50.5581 -14.64692,69.3832 3.06859,-0.5636 6.11393,-1.2473 9.129,-2.0493 3.83826,-1.0651 7.62084,-2.3214 11.33358,-3.7644 3.71219,-1.4431 7.34989,-3.0709 10.89947,-4.8773 3.54915,-1.8066 7.00575,-3.7895 10.35684,-5.9413 3.35188,-2.1525 6.59399,-4.4714 9.71419,-6.9478 3.11999,-2.4754 6.11424,-5.1054 8.97153,-7.8799 0.36722,-0.3891 0.73182,-0.7806 1.09378,-1.1746 -2.60204,-17.85957 -16.83236,-40.03755 -30.86307,-55.74238 4.76735,-8.84435 7.266,-18.7333 7.27207,-28.78069 -0.021,-2.8743 -0.24611,-5.74349 -0.6735,-8.58592 20.25731,9.18513 43.07704,26.53494 52.79848,47.36396 0.44067,-1.15171 0.86347,-2.31018 1.26827,-3.47499 1.17679,-3.80495 2.16256,-7.66636 2.95362,-11.56978 0.79154,-3.90311 1.38741,-7.84335 1.78537,-11.80598 0.39733,-3.96334 0.59619,-7.94408 0.59583,-11.92729 4.4e-4,-2.81936 -0.0989,-5.63784 -0.29791,-8.45017 -0.28228,-3.97319 -0.76309,-7.92978 -1.44064,-11.85493 -0.62776,-3.53416 -1.41449,-7.03823 -2.35779,-10.50154 -20.56165,-7.32804 -45.89823,-4.79548 -63.74906,-1.11372 -6.81835,-11.01918 -16.98234,-19.56874 -29.00647,-24.39915 18.07184,-12.93645 44.49019,-24.02091 67.37307,-22.03241 -1.38409,-1.66502 -2.8132,-3.2921 -4.28573,-4.87944 -2.77498,-2.85712 -5.6911,-5.57368 -8.73745,-8.13949 -3.04611,-2.56581 -6.21862,-4.97769 -9.50565,-7.22659 -3.28724,-2.24885 -6.68489,-4.3319 -10.18022,-6.24135 -3.49538,-1.90963 -7.08407,-3.64325 -10.75264,-5.19438 -3.66896,-1.55092 -7.41319,-2.91736 -11.21867,-4.09421 -1.42662,-0.39262 -2.86041,-0.75869 -4.30063,-1.09804 -14.14688,11.18369 -26.2293,34.57475 -32.8107,54.55552 -12.96018,0.38127 -25.4582,4.90015 -35.665394,12.89544 -2.15922,-22.12637 1.466931,-50.55807 14.646924,-69.38315 z"
         id="path19" />
    </clipPath>
    <filter
       style="color-interpolation-filters:sRGB"
       id="filter4278"
       width="1.024"
       height="1.024"
       x="-.01"
       y="-.01">
      <feGaussianBlur
         id="feGaussianBlur4280"
         stdDeviation="1.384" />
    </filter>
    <linearGradient
       id="linearGradient4290"
       x1="226.84"
       x2="406.448"
       y1="429.516"
       y2="146.703"
       gradientUnits="userSpaceOnUse"
       xlink:href="#linearGradient4292" />
    <linearGradient
       id="linearGradient4292">
      <stop
         id="stop4294"
         offset="0"
         style="stop-color:#000000;stop-opacity:0" />
      <stop
         style="stop-color:#000000"
         id="stop4296"
         offset=".496" />
      <stop
         id="stop4298"
         offset="1"
         style="stop-color:#000000;stop-opacity:0" />
    </linearGradient>
    <filter
       style="color-interpolation-filters:sRGB"
       id="filter4300"
       width="1.188"
       height="1.196"
       x="-.09"
       y="-.1">
      <feGaussianBlur
         id="feGaussianBlur4302"
         stdDeviation="11.069" />
    </filter>
    <linearGradient
       id="linearGradient11065"
       x1="104"
       x2="200"
       y1="44"
       y2="268"
       gradientTransform="translate(-23.799996,-26.303983)"
       gradientUnits="userSpaceOnUse"
       xlink:href="#linearGradient4239-3" />
    <linearGradient
       id="linearGradient4239-3">
      <stop
         id="stop4241-6"
         offset="0"
         style="stop-color:#e1e1e1" />
      <stop
         id="stop4243-7"
         offset="1"
         style="stop-color:#f7f7f7" />
    </linearGradient>
    <filter
       style="color-interpolation-filters:sRGB"
       id="filter11191"
       width="1.024"
       height="1.024"
       x="-.01"
       y="-.01">
      <feGaussianBlur
         id="feGaussianBlur11193"
         stdDeviation="1.12" />
    </filter>
    <filter
       style="color-interpolation-filters:sRGB"
       id="filter11210"
       width="1.096"
       height="1.096"
       x="-.05"
       y="-.05">
      <feGaussianBlur
         id="feGaussianBlur11212"
         stdDeviation="4.48" />
    </filter>
    <linearGradient
       id="g">
      <stop
         stop-color="#77767b"
         offset="0"
         id="stop2" />
      <stop
         stop-color="#9a9996"
         offset=".089"
         id="stop4" />
      <stop
         stop-color="#deddda"
         offset=".4"
         id="stop6" />
      <stop
         stop-color="#a9a8a9"
         offset=".8"
         id="stop8" />
      <stop
         stop-color="#77767b"
         offset="1"
         id="stop10" />
    </linearGradient>
    <linearGradient
       id="h">
      <stop
         style="stop-color:#2c92fc"
         stop-color="#fff"
         offset="0"
         id="stop13" />
      <stop
         style="stop-color:#234ef3"
         stop-color="#f6f5f4"
         offset="1"
         id="stop15" />
    </linearGradient>
    <linearGradient
       id="a">
      <stop
         stop-opacity=".437"
         stop-color="#f6f5f4"
         offset="0"
         id="stop18" />
      <stop
         stop-opacity="0"
         stop-color="#deddda"
         offset="1"
         id="stop20" />
    </linearGradient>
    <linearGradient
       id="b">
      <stop
         stop-color="#7a8599"
         offset="0"
         id="stop23" />
      <stop
         stop-color="#a4acb7"
         offset="1"
         id="stop25" />
    </linearGradient>
    <linearGradient
       xlink:href="#h"
       gradientUnits="userSpaceOnUse"
       gradientTransform="matrix(1.11765,0,0,1.11765,178.47,-343.412)"
       y2="250"
       y1="250"
       x2="98"
       x1="30"
       id="n" />
    <radialGradient
       xlink:href="#c"
       gradientUnits="userSpaceOnUse"
       fy="247.702"
       fx="64"
       r="46"
       cy="247.702"
       cx="64"
       id="m"
       gradientTransform="translate(-99.796611,-3.1186441)" />
    <linearGradient
       id="c">
      <stop
         stop-color="#5e5c64"
         offset="0"
         id="stop30" />
      <stop
         stop-color="#c0bfbc"
         offset=".739"
         id="stop32" />
      <stop
         stop-color="#deddda"
         offset=".896"
         id="stop34" />
      <stop
         stop-color="#77767b"
         offset="1"
         id="stop36" />
    </linearGradient>
    <linearGradient
       xlink:href="#d"
       gradientUnits="userSpaceOnUse"
       y2="189"
       y1="189"
       x2="70"
       x1="58"
       id="l" />
    <linearGradient
       id="d">
      <stop
         stop-color="#77767b"
         offset="0"
         id="stop40" />
      <stop
         stop-color="#9a9996"
         offset=".075"
         id="stop42" />
      <stop
         stop-color="#deddda"
         offset=".445"
         id="stop44" />
      <stop
         stop-color="#b9b8b8"
         offset=".834"
         id="stop46" />
      <stop
         stop-color="#77767b"
         offset="1"
         id="stop48" />
    </linearGradient>
    <linearGradient
       xlink:href="#e"
       gradientUnits="userSpaceOnUse"
       y2="199.856"
       y1="199.856"
       x2="68"
       x1="60"
       id="k" />
    <linearGradient
       id="e">
      <stop
         stop-color="#9a9996"
         offset="0"
         id="stop52" />
      <stop
         stop-color="#c0bfbc"
         offset=".119"
         id="stop54" />
      <stop
         stop-color="#deddda"
         offset=".351"
         id="stop56" />
      <stop
         stop-color="#d2d1ce"
         offset=".602"
         id="stop58" />
      <stop
         stop-color="#bbbab7"
         offset=".853"
         id="stop60" />
      <stop
         stop-color="#9a9996"
         offset="1"
         id="stop62" />
    </linearGradient>
    <radialGradient
       xlink:href="#f"
       gradientUnits="userSpaceOnUse"
       gradientTransform="translate(90.033898,-46.644068)"
       fy="186.801"
       fx="63.679"
       r="16"
       cy="186.801"
       cx="63.679"
       id="j" />
    <linearGradient
       id="f">
      <stop
         stop-color="#77767b"
         offset="0"
         id="stop66" />
      <stop
         stop-color="#77767b"
         offset=".729"
         id="stop68" />
      <stop
         stop-color="#abaaa9"
         offset=".81"
         id="stop70" />
      <stop
         stop-color="#c0bfbc"
         offset=".9"
         id="stop72" />
      <stop
         stop-color="#77767b"
         offset="1"
         id="stop74" />
    </linearGradient>
    <linearGradient
       xlink:href="#g"
       gradientUnits="userSpaceOnUse"
       gradientTransform="matrix(0.75525347,0.35218048,-0.63392739,1.3594617,236.99983,-133.01004)"
       y2="189"
       y1="189"
       x2="70"
       x1="58"
       id="i" />
    <linearGradient
       xlink:href="#h"
       gradientUnits="userSpaceOnUse"
       gradientTransform="translate(-112.08805,7.5869817)"
       y2="276.609"
       y1="244.627"
       x2="-31.442"
       x1="14.748"
       id="o" />
  </defs>
  <circle
     style="opacity:0.1;filter:url(#filter11210)"
     cx="128.2"
     cy="133.69601"
     r="112"
     id="circle41" />
  <circle
     style="opacity:0.1;filter:url(#filter11191)"
     cx="128.2"
     cy="131.69601"
     r="112"
     id="circle43" />
  <circle
     style="opacity:0.1"
     cx="128.2"
     cy="129.69601"
     r="114"
     id="circle45" />
  <circle
     style="fill:#4d4d4d;fill-opacity:1"
     cx="128.2"
     cy="129.69601"
     r="112"
     id="circle47" />
  <circle
     id="circle1009"
     r="100"
     cy="129.69601"
     cx="128.2"
     style="fill:#f3f3f3;fill-opacity:1;stroke-width:0.89285713" />
  <g
     id="g940"
     transform="matrix(2.4347826,0,0,2.4347826,-255.79219,-439.06853)">
    <g
       id="g1005"
       transform="rotate(36.715379,124.62091,378.48528)">
      <path
         style="fill:url(#l)"
         inkscape:connector-curvature="0"
         d="m 58,184 h 12 v 10 H 58 Z"
         id="path926" />
      <path
         style="opacity:0.2"
         inkscape:connector-curvature="0"
         d="m 60,194 h 8 v 2 h -8 z m 2,-10 v 8 h -2 v -8 z m 4,0 v 8 h -2 v -8 z m 4,0 v 8 h -2 v -8 z"
         id="path934" />
    </g>
    <path
       id="path932"
       style="fill:#4d4d4d;fill-opacity:1;opacity:0.75"
       d="m 156.74556,200.63173 -0.744,27.201 c -2.636,0.692 -4.254,3.074 -4.256,5.799 a 6,6 0 0 0 3.844,5.592 l -0.217,3.902 a 2.374,2.374 0 1 0 4.746,0 l -0.217,-3.896 a 6,6 0 0 0 3.844,-5.598 c -0.003,-2.725 -1.709,-5.105 -4.344,-5.797 l -0.656,-27.203 z m 1,29 a 4,4 0 1 1 0,8 4,4 0 0 1 0,-8 z"
       inkscape:connector-curvature="0" />
  </g>
  <path
     style="fill:#ffffff;fill-opacity:1;opacity:0.3"
     d="M 128.19922 17.695312 A 112 112 0 0 0 16.199219 129.69531 A 112 112 0 0 0 16.240234 130.86719 A 112 112 0 0 1 128.19922 19.695312 A 112 112 0 0 1 240.1582 130.52344 A 112 112 0 0 0 240.19922 129.69531 A 112 112 0 0 0 128.19922 17.695312 z "
     id="circle900" />
  <path
     style="fill:#0b0b0b;fill-opacity:1;opacity:0.2"
     d="M 240.1582 128.52344 A 112 112 0 0 1 128.19922 239.69531 A 112 112 0 0 1 16.240234 128.86719 A 112 112 0 0 0 16.199219 129.69531 A 112 112 0 0 0 128.19922 241.69531 A 112 112 0 0 0 240.19922 129.69531 A 112 112 0 0 0 240.1582 128.52344 z "
     id="circle905" />
</svg>

<svg enable-background="new" height="256" viewBox="0 0 256 256" width="256" xmlns="http://www.w3.org/2000/svg" xmlns:xlink="http://www.w3.org/1999/xlink">
  <filter id="filter11191" color-interpolation-filters="sRGB" height="1.024" width="1.024" x="-.01" y="-.01">
    <feGaussianBlur stdDeviation="1.12"/>
  </filter>
  <filter id="filter11210" color-interpolation-filters="sRGB" height="1.096" width="1.096" x="-.05" y="-.05">
    <feGaussianBlur stdDeviation="4.48"/>
  </filter>
  <linearGradient id="l" gradientUnits="userSpaceOnUse" x1="58" x2="70" y1="189" y2="189">
    <stop offset="0" stop-color="#77767b"/>
    <stop offset=".075" stop-color="#9a9996"/>
    <stop offset=".445" stop-color="#deddda"/>
    <stop offset=".834" stop-color="#b9b8b8"/>
    <stop offset="1" stop-color="#77767b"/>
  </linearGradient>
  <circle cx="128.2" cy="133.69601" filter="url(#filter11210)" opacity=".1" r="112"/>
  <circle cx="128.2" cy="131.69601" filter="url(#filter11191)" opacity=".1" r="112"/>
  <circle cx="128.2" cy="129.69601" opacity=".1" r="114"/>
  <circle cx="128.2" cy="129.69601" fill="#4d4d4d" r="112"/>
  <circle cx="128.2" cy="129.69601" fill="#f3f3f3" r="100" stroke-width=".892857"/>
  <g transform="matrix(2.4347826 0 0 2.4347826 -255.79219 -439.06853)">
    <g transform="matrix(.8016152 .59784033 -.59784033 .8016152 250.99666 .582319)">
      <path d="m58 184h12v10h-12z" fill="url(#l)"/>
      <path d="m60 194h8v2h-8zm2-10v8h-2v-8zm4 0v8h-2v-8zm4 0v8h-2v-8z" opacity=".2"/>
    </g>
    <path d="m156.74556 200.63173-.744 27.201c-2.636.692-4.254 3.074-4.256 5.799a6 6 0 0 0 3.844 5.592l-.217 3.902a2.374 2.374 0 1 0 4.746 0l-.217-3.896a6 6 0 0 0 3.844-5.598c-.003-2.725-1.709-5.105-4.344-5.797l-.656-27.203zm1 29a4 4 0 1 1 0 8 4 4 0 0 1 0-8z" fill="#4d4d4d" opacity=".75"/>
  </g>
  <path d="m128.19922 17.695312a112 112 0 0 0 -112.000001 111.999998 112 112 0 0 0 .041015 1.17188 112 112 0 0 1 111.958986-111.171878 112 112 0 0 1 111.95898 110.828128 112 112 0 0 0 .04102-.82813 112 112 0 0 0 -112-111.999998z" fill="#fff" opacity=".3"/>
  <path d="m240.1582 128.52344a112 112 0 0 1 -111.95898 111.17187 112 112 0 0 1 -111.958986-110.82812 112 112 0 0 0 -.041015.82812 112 112 0 0 0 112.000001 112 112 112 0 0 0 112-112 112 112 0 0 0 -.04102-1.17187z" fill="#0b0b0b" opacity=".2"/>
</svg>
